X:1
T:Galliard 3
T:Francis Cutting
T:Arranged by Gary Kerr
T:Cambridge University Library MS Dd.5.78.3, ff. 20v+11
%%score ( 1 2 3 4 )
L:1/8
Q:1/4=104
M:3/4
K:E
V:1 treble-8 nm="Guitar"
V:2 treble-8 
V:3 treble-8 
V:4 treble-8 
V:1
"^Andante" e3 !2!f !4!g2 | e2 e2 !4!g2 | !3!f2 e2 !2!f2 | !4!g2"^CII" !4!a2 f2 | !2!g3 !4!a g2 | %5
"^CII" f2 e4 |"^CII" f6 | [Bdf]6 || e2 !4!f2 !4!g2 | e2 b2"^½CIV" g2 | !3!f3 e f2 | g2 a2 f2 | %12
 g3 !4!g !4!fe | e2 e2 !4!d2 | e6 | [GBe]6 || eA/B/ c/d/e/f/ !4!g2 | %17
 !1!c/B/c/!4!d/ e!1!f !2!!1![eg]2 | !2!f!0!B/!2!c/ !4!de [Bf]e/f/ | g2"^CII" ag f/g/a/f/ | %20
 !3!g"^IV"!4!b/!2!a/ !1!g!4!f"^½CIV" [Beg]2 |"^CII" f2 ef/g/ fe | dB/c/ d/e/f/g/ f/e/d/c/ | %23
 [Bdf]6 || e!4!d e!4!f !1!gf/g/ | !2!a/f/g/a/ !4!be !4!a!3!g | !2!f!0!B !4!de !4![Bf]2 | %27
 !4!g2"^CII" a3 f | !4!g3 !4!b !4!ag/f/ | e/f/g/e/"^CII" f/e/d/c/ d/e/f/d/ | e6 | e6 || %32
"^poco pont." f3 e !4!de | !3!f2 e4 | B2 !4!f2 !4!g2 |"^CII" a2 f2 g2 |"^CII" f3 e f2 | %37
 g2 f3 !4!e | f6 | [Bdf]6 ||"^dolce""^CII" f2 a3 !4!g | !1!fe"^CII" a2 !2!g2 | %42
"^CII" f3 !4!b !4!^a!2!g | !2!f4 !4!g2 |"^½CII" a3 z3 | !3!g2 f4 | [Be]6 | [GBe]6 || f3 e de | %49
 f2 e4 | B/!2!c/!4!d/e/ !2!f2 g2 | a4 g2 | f3 e fe/f/ | %53
 g2"^<font face=\"Times New Roman\"/>CII" f4 | f6 | fa/g/ f/e/d/c/ [Bdf]2 || fg a3 g | %57
 fe"^CII" a2 g2- | gf !1!g/!2!a/b ^ag | f4 g2 |"^½CII" a4"^CII" a"^IV"!4!b/!2!a/ | %61
 !1!g!4!a/!4!g/ !2!f/!0!e/d/c/ d/e/f/d/ | e"^IV"!4!b/!2!a/ !4!b/e/"^II"!1!f/!3!g/ a/g/a/f/ | %63
 !4!g2 e2 e2 |] %64
V:2
 E,4 E,2 | A,2 !3!G,2 E,2 | !2!B,2 !4!C2 !1!D2 | z !1!E !2!F2 B,2 | E,4 E,2 | z F, !3!G,2 A,2 | %6
 B,6 | B,6 || E,4 E,2 | A,2 G,2 E,2 | !2!B,3 C D2 | z E F4 | E,4 A,2 | !3!C2 B,4 | E,6 | E,6 || %16
 E,4 E,2 | A,2 !3!G,3 E, | !1!B,3 C D2 | z E F2 B,2 | E,4 z E, | z F, G,2 A,2 | B,6 | B,6 || %24
 E,4 E,2 | A,2 !1!G,2 A,2 | !1!B,3 !3!C !1!D!2!B, | z E F4 | E,4 A,2 | !3!C2 B,4 | E,6 | E,6 || %32
 B,4 !1!B,2- | B,2 E,4 | !2!B,3 A, !3!G,!1!F, | F,4 E,2 | B,3 C D2 | z E !3!F2 F,2 | B,6 | B,6 || %40
 B,2 F,2 A,2 | z !3!G, F,2 E,2 | B,4 !1!C2 | !1!D4 !1!E2 | A,3 G,"^CII" F,2 | E,2 B,4 | E,6 | %47
 E,6 || B,4 B,2- | B,2 E,4 | !1!B,3 A, G,2 | F,4 E,2 | B,3 C D2 | EE, F,4 | B,6 | B,4 B,2 || %56
 B,2 F,!2!G, A,2- | A,G, F,2 E,2 | B,2 z2 C2 | D4 E2 | A,3 G, F, z | E,2 B,4 | E,6 | E,4 E,2 |] %64
V:3
 !1![GB]4 !1![EB]2 | !1!!2![Ac]2 !1![EB]2 [EB]2 | !1![DB]2 z4 | B2 c2 !3!d2 | !1!!3![Be]4 [Be]2 | %5
 [Ac]2 [EB]2 !4!d!2!c | B2 !2!F4 | x2 F4 || [GB]2 !3!A2 !1![EB]2 | [Ac]2 B2 [Be]2 | !1![DB]3 z B2 | %11
 B2 c2 d2 | [Be]4 !2!!3![Ac]!1!G | !4!F"^*CII""^* hinge barré"!1!E !3!F3 A | G2 E4 | x2 E4 || %16
 !1![GB] z z2 B2 | x6 | x6 | B2 c2 z2 | x6 | [Ac]2 B2 z2 | x6 | z2 F4 || [GB] z z4 | x6 | x6 | %27
 B2 cA cd | z B !2!e!1!d !1!c2 | x6 | [GB]E/F/ G/A/B/c/ B/A/G/F/ | [GB]E/F/ G/A/B/c/ d/c/d/e/ || %32
 [DB]4 !3!F2 | z !2!A [GB]F GA | !1!D4 !1![EB]2 | !2![Fc]2 !3!d2 !3![Be]2 | [Bd]3 z B2 | %37
 B2 !4![Bc]2 !2!^A2 | B2 F4 | z2 F4 || [FB=d]2 !3![Fc]2 z2 | z2 c!3!d !1!!3![Be]2 | [FBd]3 z z2 | %43
 B3 !3!=d !2!c!0!B | [Ac]3 B [Ac]!4!d | !2!B2 F3 A | z2 E4 | z2 E4 || [DB]4 F2 | %49
 z A [GB]E/F/ G/F/G/A/ | x4 [EB]2 | [Fc]!3!B cd [Be]2 | [Bd]c d z B2 | B2 [Bc]^A/G/ A/B/c/A/ | %54
 [Bd]B/c/ d/e/f/g/ fg | x6 || [B=d]2 [Fc]2 z2 | z2 cd [Be]2 | [Bd]2 z4 | B!4!F B/c/=d cB | %60
 [Ac]!3!e/!2!=d/ cB c2 | x6 | x6 | g/B/!1!c/!3!d/ e/B/!4!c/!3!A/ !2!!3!!1![B,EGBB]2 |] %64
V:4
 x6 | x6 | x6 | x6 | x6 | x6 | d3 !4!e !4!dc | x6 || x6 | x6 | x6 | x6 | x6 | x6 | B3 A GF | x6 || %16
 x6 | x6 | x6 | x6 | x6 | x6 | x6 | x6 || x6 | x6 | x6 | x6 | x6 | x6 | x6 | x6 || x6 | x6 | x6 | %35
 x6 | x6 | x6 | !4!d3 e dc | x6 || x6 | x6 | x6 | x6 | x6 | !4!e2 e2 d2 | G3 A GF | x6 || x6 | x6 | %50
 x6 | x6 | x6 | x6 | x6 | x6 || x6 | x6 | x6 | x6 | x6 | x6 | x6 | x6 |] %64

